X:1
T: Athole's Bonny Lasses
C:J.S. Robertson
R:Reel
I:speed 232
Q:232
K:G
M:4/4
L:1/8
|:B|G2DG B,G, DB,|A,A, EA, AA, EA|G2DG B,G, DB,|EG FA BG GB|
G2DG B,G, DB,|A,A, EA, AA, EA|G2DG B,G, DB,|EG FA BG Gd|
BG B1/2c1/2d g2dB|ce dB cA Ac|BG B1/2c1/2d g2dB|ce dc BG Gd|
BG B1/2c1/2d g2dB|ce dB cA Ac|GD EG DG B,G|EG FA BG G:|
